icons/svgs/face-grin-outline.svg

<svg width="24" height="24" viewBox="0 0 24 24" fill="none" xmlns="http://www.w3.org/2000/svg">
<path d="M20.125 12C20.125 9.10938 18.5625 6.45312 16.0625 4.96875C13.5234 3.52344 10.4375 3.52344 7.9375 4.96875C5.39844 6.45312 3.875 9.10938 3.875 12C3.875 14.9297 5.39844 17.5859 7.9375 19.0703C10.4375 20.5156 13.5234 20.5156 16.0625 19.0703C18.5625 17.5859 20.125 14.9297 20.125 12ZM2 12C2 8.44531 3.875 5.16406 7 3.36719C10.0859 1.57031 13.875 1.57031 17 3.36719C20.0859 5.16406 22 8.44531 22 12C22 15.5938 20.0859 18.875 17 20.6719C13.875 22.4688 10.0859 22.4688 7 20.6719C3.875 18.875 2 15.5938 2 12ZM15.6328 14.0703C16.375 13.875 17.0391 14.5391 16.6484 15.1641C15.6719 16.6484 13.9531 17.625 11.9609 17.625C10.0078 17.625 8.28906 16.6484 7.3125 15.1641C6.92188 14.5391 7.58594 13.875 8.32812 14.0703C9.46094 14.3438 10.6719 14.4609 11.9609 14.4609C13.2891 14.4609 14.5 14.3438 15.6328 14.0703ZM7.625 10.125C7.625 9.46094 8.17188 8.875 8.875 8.875C9.57812 8.875 10.125 9.46094 10.125 10.125C10.125 10.8281 9.57812 11.375 8.875 11.375C8.17188 11.375 7.625 10.8281 7.625 10.125ZM15.125 8.875C15.8281 8.875 16.375 9.46094 16.375 10.125C16.375 10.8281 15.8281 11.375 15.125 11.375C14.4219 11.375 13.875 10.8281 13.875 10.125C13.875 9.46094 14.4219 8.875 15.125 8.875Z" fill="black"/>
</svg>

<svg xmlns="http://www.w3.org/2000/svg" width="24" height="24" fill="currentColor" class="icon-face-grin-outline" viewBox="0 0 24 24">
  <mask id="a" width="20" height="21" x="2" y="2" maskUnits="userSpaceOnUse" style="mask-type:alpha">
    <path d="M20.125 12c0-2.89-1.562-5.547-4.062-7.031-2.54-1.446-5.625-1.446-8.125 0C5.398 6.453 3.875 9.109 3.875 12a8.13 8.13 0 0 0 4.063 7.07c2.5 1.446 5.585 1.446 8.125 0 2.5-1.484 4.062-4.14 4.062-7.07M2 12a9.93 9.93 0 0 1 5-8.633c3.086-1.797 6.875-1.797 10 0 3.086 1.797 5 5.078 5 8.633 0 3.594-1.914 6.875-5 8.672-3.125 1.797-6.914 1.797-10 0C3.875 18.875 2 15.594 2 12m13.633 2.07c.742-.195 1.406.47 1.015 1.094-.976 1.484-2.695 2.461-4.687 2.461-1.953 0-3.672-.977-4.648-2.46-.391-.626.273-1.29 1.015-1.095 1.133.274 2.344.39 3.633.39 1.328 0 2.539-.116 3.672-.39m-8.008-3.945c0-.664.547-1.25 1.25-1.25s1.25.586 1.25 1.25c0 .703-.547 1.25-1.25 1.25s-1.25-.547-1.25-1.25m7.5-1.25c.703 0 1.25.586 1.25 1.25 0 .703-.547 1.25-1.25 1.25s-1.25-.547-1.25-1.25c0-.664.547-1.25 1.25-1.25"/>
  </mask>
  <g mask="url(#a)">
    <path d="M0 0h24v24H0z"/>
  </g>
</svg>
